svgs/regular/integral.svg

<svg xmlns="http://www.w3.org/2000/svg" viewBox="0 0 320 512"><!-- Font Awesome Pro 6.0.0-alpha2 by @fontawesome - https://fontawesome.com License - https://fontawesome.com/license (Commercial License) --><path d="M288 76C288 89.25 277.25 100 264 100S240 89.25 240 76C240 60.562 227.438 48 212 48S184 60.562 184 76V436C184 477.906 149.906 512 108 512S32 477.906 32 436C32 422.75 42.75 412 56 412S80 422.75 80 436C80 451.438 92.562 464 108 464S136 451.438 136 436V76C136 34.094 170.094 0 212 0S288 34.094 288 76Z"/></svg>

<svg xmlns="http://www.w3.org/2000/svg" viewBox="0 0 320 512"><!--! Font Awesome Pro 6.0.0-alpha3 by @fontawesome - https://fontawesome.com License - https://fontawesome.com/license (Commercial License) --><path d="M288 76c0 13.25-10.75 24-24 24s-24-10.75-24-24c0-15.44-12.56-28-28-28S184 60.56 184 76v360C184 477.9 149.9 512 108 512S32 477.9 32 436c0-13.25 10.75-24 24-24s24 10.75 24 24c0 15.44 12.56 28 28 28s28-12.56 28-28V76C136 34.09 170.1 0 212 0S288 34.09 288 76z"/></svg>
